X:1
T:Title
%%score { ( 1 3 ) | 2 }
L:1/8
M:3/4
K:Eb
V:1 treble nm="Grand Piano"
V:3 treble 
V:2 bass 
V:1
 z2 z2[Q:1/4=104] E2 | G4 GG | B4 G>E | [DF]3 [CE] [DF]2 | [B,EG]4 [_DEG]2 | [CEA]4 [CEA][A,EA] | %6
 [EB]4 [EG]>E |[M:4/4] [DF]6 [DB]2 |[M:3/4] [EB]4 [EG][Ge] | [GB]4 [GB][GB] | c4 ec |[M:2/4] B4 | %12
[M:1/4] z F |[M:3/4] [EG]4 [EF][EG] | [EB]4 [DF][DG] |[M:2/4] [B,E]4 | %16
[M:4/4] [EB]2 [EAc]2 [EAc]>[EAc] [EAc]2 | [EAc]>[EAc] [Ac]2 [GB]>G B2- | BE G2 F>G B2 | %19
 [EG]>E [DF]6 | [DB]2 B2 B>B G2 | FE [CE]2 [A,C]>[CE] [B,E]2- | [B,E][EF] [EG]2 [EF][EG] [EB]2 | %23
[M:3/4] [DF][DG] [B,E]4- | [B,E]2 z2 z2 |] %25
V:2
 z2 z2 [E,G,]2 | [E,B,E]4 [E,B,E][E,B,E] | [E,G,E]4 [E,B,E]>[E,G,] | [B,,B,]3 [B,,B,] [B,,B,]2 | %4
 E,4 E,2 | A,,4 A,,C, | [E,G,]4 [C,G,]>[C,=A,] |[M:4/4] [B,,B,]6 [B,,A,]2 | %8
[M:3/4] [E,G,]4 [E,B,][E,B,] | [E,E]4 [E,E][E,E] | [A,EA]4 [A,CA][K:bass][A,E] |[M:2/4] [E,G,E]4 | %12
[M:1/4] [C,G,][=B,,=A,] |[M:3/4] [B,,B,]4 [B,,A,][B,,B,] | [B,,G,]4 [B,,A,][B,,B,] | %15
[M:2/4] [E,G,]4 |[M:4/4] [E,G,]2 A,,2 A,,>A,, A,,2 | A,,>A,, [E,E]2 [E,E]>[E,B,E] [E,G,E]2- | %18
 [E,G,E][E,G,] [E,B,E]2 [E,A,E]>[E,B,E] [E,G,E]2 | [C,G,]>[C,=A,] [B,,B,]6 | %20
 [B,,A,]2 [E,G,E]2 [E,G,E]>[E,G,E] [E,B,E]2 | [E,A,B,][E,G,_D] [A,,A,]2 [A,,E,]>[A,,A,] [E,G,]2- | %22
 [E,G,][C,=A,] [B,,B,]2 [B,,_A,][B,,B,] [B,,G,]2 |[M:3/4] [B,,A,][B,,B,] [E,G,]4- | %24
 [E,G,]2 z2 z2 |] %25
V:3
 x6 | x6 | x6 | x6 | x6 | x6 | x6 |[M:4/4] x8 |[M:3/4] x6 | x6 | x6 |[M:2/4] x4 |[M:1/4] E2 | %13
[M:3/4] x6 | x6 |[M:2/4] x4 |[M:4/4] x8 | x8 | x8 | x8 | x8 | x8 | x8 |[M:3/4] x6 | x6 |] %25

